X:1
T:Hamp Sewell
T:Rev. J. Oatman, Jr.
T:Love Won My Heart
%%score { ( 1 2 ) | ( 3 4 ) }
L:1/8
M:6/8
K:Ab
V:1 treble 
V:2 treble 
V:3 bass 
V:4 bass 
V:1
{/x} EFG A2 E | F2 C E3 | EFG A2 B | A3 G3 | GA=A B2 c | B2 F F3 | AcB AGF | B3 B2 =B | %8
w: Out on the moun\- tains|far a\- way,|Out in the cold and|dan\- ger,|When I was wand\- 'ring|far a\- stray,|Still to my Sa\- vior a|stran\- ger: *|
w: I lived a self\- ish|life for years,|Sought thro' this world for|plea\- sure,|Till God, who rules the|ra\- diant spheres,|Sent me a won\- der\- ful|trea\- sure. *|
w: I work for Je\- sus|now each day,|Since I have been for\-|giv\- en;|And when this life has|passed a\- way,|I want to praise Him in|Heav\- en. *|
"^Chorus" c3 B2 E | A3- A3 | B3 A2 F | G3- G3 | F3 FGF | E2 A c3 | B3 c2 B | e3- e2 z | c3 B2 E | %17
w: Love won my|heart *|Christ did im\-|part, *|Love, won\- der\- ful|love of God,|Love won my|heart; *|God's love to|
w: |||||||||
w: |||||||||
 A3- A3 | B3 A2 E | F3- F3 | d2 d c2 =B | c2 E E3 | (c2 B) c2 B | A3- A3 |] %24
w: me, *|deep as the|sea, *|Love of God so|strange and free,|Love * won my|heart. *|
w: |||||||
w: |||||||
V:2
 CDD C2 C | C2 C C3 | CDD C2 C | D3 D3 | EEE E2 E | =D2 D D3 | =DDD DDD | E3 D2 =D | E3 D3 | %9
w: |||||||||
w: ||||||||Love won,|
 CED C3 | C3 C3 | DDC D3 | D3 DDD | C2 C E3 | E3 =D2 D | GBA G2 z | E3 D3 | CED C3 | C3 C3 | %19
w: ||||||* won my heart;||||
w: Love won my heart,|Christ did,|Christ did im- part,|||||God's love,|God's love to me,|deep as,|
 DDE D3 | F2 F E2 =D | E2 C C3 | (E2 =D) E2 _D | C3- C3 |] %24
w: |||||
w: deep as the sea,|||||
V:3
 A,E,E, E,2 A, | A,2 E, A,3 | A,E,E, E,2 E, | E,3 B,3 | B,F,^F, G,2 A, | F,2 B, B,3 | %6
 F,F,F, B,B,A, | G,3 G,2 z | A,3 G,2 G, | A,G,F, E,3 | E,3 (E,2 A,) | B,B,=A, B,3 | G,3 G,B,G, | %13
 A,2 E, A,3 | G,3 A,2 A, | B,DC B,2 z | A,3 G,3 | A,G,F, E,3 | E,3 (E,2 A,) | A,A,=A, B,3 | %20
 A,2 A, A,2 A, | A,2 A, A,3 | A,3 A,2 G, | A,3- A,3 |] %24
V:4
 A,,A,,A,, A,,2 A,, | A,,2 A,, A,,3 | A,,A,,A,, A,,2 A,, | B,,3 E,3 | E,E,E, E,2 A,, | %5
 B,,2 B,, B,,3 | B,,B,,B,, B,,B,,F, | E,3 E,2 z | A,,3 E,2 E, | A,,3- A,,3 | A,,3 A,,2 A,, | %11
 E,3- E,3 | E,3 E,E,E, | A,,2 A,, A,,3 | B,,3 B,,2 F, | E,3- E,2 z | A,,3 E,2 E, | A,,3- A,,3 | %18
 A,,3 A,,3 | D,D,C, B,,3 | D,2 D, A,,2 A,, | E,2 E, E,3 | E,3 E,2 E, | A,,3- A,,3 |] %24

